X:1
T: The Chickadee's Polka
C: Bob McQuillen  Oct '75
M: C|
N: This is the tune the chickadee's sing in Mr. Scott Thomas' woodlot up in Norwich, Vt. I go up there every year, in the fall when it's so beautiful, just to hear them sing it. (Sometimes I see a deer!)
R: polka
K: G
"G"B2G2 D2GA| B2G2 D2GA| "G"B2G2 "C"E2G2| E4 "G"D4|"C"C2E2 E3C| "G"B,2D2 G2B2|
"A7"B2A2 E2B2| "D7"B4 A2GA |"G"B2G2 D2GA| B2G2 D2GA|"G" B2G2 "C"E2G2| E4 "G"D4|
"C"E2G2 c2e2| "G"e2d2 B2dc| "D7"B2A2 G2F2| "G"G6 ||dc| "G"B2B2 B2dc| B2B2 B2dc|
B2d2 g2a2| b4 g4|"D"a3b a2g2| "C"e3g "G"d2B2| "Am"e2d2 c2B2| "D"A6 dc|"G"B2B2 B2dc|
"G"B2B2 B2dc| B2d2 g2a2| "G"b4 g4|"D"abag f2ef| "G"gage d2Bd| "C"e2g2 "D7"f2a2| "G"g6 |]
